X:1
T:Astrid Valse
M:3/4
L:1/8
I:abc2nwc
K:C
E2|:A4B2|c4d2|cB cd cB|A2c2e2|a3g f e|d2f2a2|e4c2|
B4E2|A4B2|c4d2|cB cd cB|A2c2e2|a3g f e|d2f2a2|e6-|e4e2:|
|:a3g f e|d2f2a2|e3f e c|A4B2|c2f2e2|
d2c2B2|A2E A B c|A4e2|g3f e d|c2e2g2|
d3e e c|A4B2|c2f2e2|d2c2B2|A2E A B c|A4E2:|
